X:190
T: Tom McGuire's #1
S: "Where's the Crack v/1" (DJ Taylor)
Z: B.Black
L: 1/8
M: 4/4
R: reel
K: D
FBAF EFDe | fdec BdAg | FA A2 eAfA | gfed BdAG |
(3FGA eA fAeA | EB B2 ^GEBG | Ee e2 fe^de | dB^GB A2 DE ||
FBAF EFDe | fd d2 BdAg | FA A2 eAfA | gfed BdAg |
(3FGA dA FADF | G2 BG EACA | A,A A2 ^GAa=g | fdec dABc ||
d2 fd adfd | egfd edBA | (3ABA FA DAFe | cAec AecA |
d2 fd adfd |  cdef gefg | af (3gfe fded | cAGE DEFA ||
d2 fd adfd | GBBG B2 =cB | AGFA DAFA | BGec AecA |
d2 fd adfd | cdef fefg | (3agf (3gfe fdec | BAGE D3 E ||
